svgs/sharp-light/truck-plane.svg

<svg xmlns="http://www.w3.org/2000/svg" viewBox="0 0 640 512"><!--! Font Awesome Pro 6.6.0 by @fontawesome - https://fontawesome.com License - https://fontawesome.com/license (Commercial License) Copyright 2024 Fonticons, Inc. --><path d="M176.3 56.4C165.9 72.3 160 91 160 103l0 89.8 0 8.9-7.6 4.7L32 280.9l0 56.9 106.9-35.6 21.1-7 0 22.2 0 82.7 0 7.5-5.8 4.8L112 447.5l0 31.5 82.5-30 5-1.8 5.1 1.6L256 464.5l0 33.5-55.6-17.1-83 30.2-2.6 1-2.8 0-16 0-16 0 0-16 0-56 0-7.5 5.8-4.8L128 392.5l0-53L21.1 375.2 0 382.2 0 360l0-88 0-8.9 7.6-4.7L128 183.8l0-80.9c0-19.7 8.6-44.5 21.5-64.1C161.9 19.8 182.1 0 208 0c26.3 0 46.5 19.7 58.9 38.9C278.2 56.4 286 77.7 287.7 96l-32.2 0c-1.6-11.7-7-26.7-15.4-39.7C229.5 39.9 217.7 32 208 32c-9.1 0-20.9 7.8-31.7 24.4zM608 160l-288 0 0 144 14.6 0 2.8-9.2 19.2-64 6.8-22.8 23.8 0 153.6 0 23.8 0 6.8 22.8 19.2 64 2.8 9.2 14.6 0 0-144zm32 144l0 16 0 112 0 16 0 16-16 0-16 0 0 32 0 16-32 0 0-16 0-32-224 0 0 32 0 16-32 0 0-16 0-32-16 0-16 0 0-16 0-16 0-112 0-16 0-144 0-32 32 0 288 0 32 0 0 32 0 144zm-37 32l-43 0-192 0-43 0-5 0 0 96 32 0 224 0 32 0 0-96-5 0zm-43-32l-9.6-32-9.6-32-153.6 0-9.6 32L368 304l33.4 0 125.2 0 33.4 0zM376 360a24 24 0 1 1 0 48 24 24 0 1 1 0-48zm152 24a24 24 0 1 1 48 0 24 24 0 1 1 -48 0z"/></svg>

<svg xmlns="http://www.w3.org/2000/svg" viewBox="0 0 640 512"><!--! Font Awesome Pro 6.4.0 by @fontawesome - https://fontawesome.com License - https://fontawesome.com/license (Commercial License) Copyright 2023 Fonticons, Inc. --><path d="M176.3 56.4C165.9 72.3 160 91 160 103v89.8 8.9l-7.6 4.7L32 280.9v56.9l106.9-35.6 21.1-7v22.2l0 82.7v7.5l-5.8 4.8L112 447.5V479l82.5-30 5-1.8 5.1 1.6L256 464.5V498l-55.6-17.1-83 30.2-2.6 1H112 96 80V496 440v-7.5l5.8-4.8L128 392.5l0-53L21.1 375.2 0 382.2V360 272v-8.9l7.6-4.7L128 183.8V103c0-19.7 8.6-44.5 21.5-64.1C161.9 19.8 182.1 0 208 0c26.3 0 46.5 19.7 58.9 38.9C278.2 56.4 286 77.7 287.7 96H255.5c-1.6-11.7-7-26.7-15.4-39.7C229.5 39.9 217.7 32 208 32c-9.1 0-20.9 7.8-31.7 24.4zM608 160H320V304h14.6l2.8-9.2 19.2-64 6.8-22.8h23.8H540.8h23.8l6.8 22.8 19.2 64 2.8 9.2H608V160zm32 144v16V432v16 16H624 608v32 16H576V496 464H352v32 16H320V496 464H304 288V448 432 320 304 160 128h32H608h32v32V304zm-37 32H560 368 325h-5v96h32H576h32V336h-5zm-43-32l-9.6-32-9.6-32H387.2l-9.6 32L368 304h33.4H526.6 560zM376 360a24 24 0 1 1 0 48 24 24 0 1 1 0-48zm152 24a24 24 0 1 1 48 0 24 24 0 1 1 -48 0z"/></svg>
